Hatter-kde/actions/24/format-font-size-less.svg

<svg xmlns="http://www.w3.org/2000/svg" viewBox="0 0 24 24">
  <defs id="defs3051">
    <style type="text/css" id="current-color-scheme">
      .ColorScheme-Text {
        color:#363636;
      }
      </style>
  </defs>
 <path style="fill:currentColor;fill-opacity:1;stroke:none" 
     d="M 9.2167969 4 L 4 18 L 5.6875 18 L 7.3554688 13.570312 L 12.917969 13.570312 L 13.066406 14 L 14.732422 14 L 11.210938 4 L 9.2167969 4 z M 10.232422 5.6113281 L 12.361328 12.285156 L 7.8730469 12.285156 L 10.232422 5.6113281 z M 16 13.792969 L 16 18.085938 L 13.707031 15.792969 L 13 16.5 L 16.292969 19.792969 L 16.5 20 L 16.707031 19.792969 L 20 16.5 L 19.292969 15.792969 L 17 18.085938 L 17 13.792969 L 16 13.792969 z "
     class="ColorScheme-Text"
     />
</svg>

<?xml version="1.0" encoding="UTF-8"?>
<svg viewBox="0 0 24 24" xmlns="http://www.w3.org/2000/svg">
 <defs id="defs3051">
  <style id="current-color-scheme" type="text/css">.ColorScheme-Text {
        color:#363636;
      }</style>
 </defs>
 <path class="ColorScheme-Text" d="m9.2168 4-5.2168 14h1.6875l1.668-4.4297h5.5625l0.14844 0.42969h1.666l-3.5215-10h-1.9941zm1.0156 1.6113 2.1289 6.6738h-4.4883l2.3594-6.6738zm5.7676 8.1816v4.293l-2.293-2.293-0.70703 0.70703 3.5 3.5 3.5-3.5-0.70703-0.70703-2.293 2.293v-4.293h-1z" fill="currentColor"/>
</svg>
